src/staging/static/icons/showers-na.svg

<svg enable-background="new 0 0 283.1 282.4" viewBox="0 0 283.1 282.4" xmlns="http://www.w3.org/2000/svg"><path d="m283.1 18.5c0-10.2-8.3-18.5-18.5-18.5h-246.1c-10.2 0-18.5 8.3-18.5 18.5v245.5c0 10.2 8.3 18.5 18.5 18.5h246.2c10.2 0 18.5-8.3 18.5-18.5v-245.5z" fill="#fff"/><path d="m283.1 18.5c0-10.2-8.3-18.5-18.5-18.5h-246.1c-10.2 0-18.5 8.3-18.5 18.5v245.5c0 10.2 8.3 18.5 18.5 18.5h246.2c10.2 0 18.5-8.3 18.5-18.5v-245.5z" fill="#a7a6a6"/><g fill="#fff"><path d="m133.7 19.9h11.6l25.8 25.8h-63.2z"/><path d="m110.2 70.2c1.8 0 3.3-1.5 3.3-3.3s-1.5-3.3-3.3-3.3-3.3 1.5-3.3 3.3 1.5 3.3 3.3 3.3z"/><path d="m102.1 97.2c2 0 3.7-1.6 3.7-3.7 0-2-1.6-3.6-3.7-3.6-2 0-3.6 1.6-3.6 3.6-.1 2.1 1.6 3.7 3.6 3.7z"/><path d="m93.9 124.5c2.3 0 4.2-1.9 4.2-4.2s-1.9-4.2-4.2-4.2-4.2 1.9-4.2 4.2c0 2.4 1.8 4.2 4.2 4.2z"/><path d="m195.2 151.5c2.7 0 4.8-2.2 4.8-4.8 0-2.7-2.2-4.8-4.8-4.8-2.7 0-4.8 2.2-4.8 4.8-.1 2.6 2.1 4.8 4.8 4.8z"/><path d="m96.8 178.9c3.1 0 5.6-2.5 5.6-5.6s-2.5-5.5-5.6-5.5-5.6 2.5-5.6 5.5c0 3.1 2.5 5.6 5.6 5.6z"/><ellipse cx="69.8" cy="198.4" rx="6.4" ry="6.4" transform="matrix(.3827 -.9239 .9239 .3827 -140.1975 186.8983)"/><path d="m62.3 230.1c3.9 0 7-3.1 7-7s-3.1-7-7-7-7 3.1-7 7c.1 3.9 3.2 7 7 7z"/><path d="m220.3 230.2c3.9 0 7-3.2 7-7 0-3.9-3.1-7-7-7s-7 3.1-7 7c0 3.8 3.1 7 7 7z"/><path d="m54.6 256.2c4.5 0 8-3.6 8-8s-3.6-8-8-8-8 3.6-8 8c-.1 4.4 3.5 8 8 8z"/><path d="m79.6 256.3c4.4 0 8-3.6 8-8.1 0-4.4-3.6-8-8-8s-8 3.6-8 8c0 4.5 3.6 8.1 8 8.1z"/><path d="m198.8 256.5c4.4 0 8-3.6 8-8 0-4.5-3.6-8-8-8-4.5 0-8.1 3.6-8.1 8 .1 4.4 3.7 8 8.1 8z"/><path d="m228.6 256.1c4.4 0 8-3.6 8-8s-3.6-8-8-8-8 3.6-8 8c-.1 4.4 3.5 8 8 8z"/><path d="m138.5 202.3c12.7 0 23-10.3 23-23s-10.3-23-23-23-23 10.3-23 23 10.3 23 23 23z"/><path d="m158.5 189.4 70.2.1-53.8 70.8h-65l-53.2-119.8 10.6-4.3s11.8 32.5 25.1 48.5c9.9 12 38.5 35.9 70.5 32.1 29.8-3.5 34.8-12.5 34.8-12.5l-41.9-11.3z"/><path d="m119.2 70.2c1.8 0 3.3-1.5 3.3-3.3s-1.5-3.3-3.3-3.3-3.3 1.5-3.3 3.3 1.5 3.3 3.3 3.3z"/><path d="m130.4 70.4c1.8 0 3.3-1.5 3.3-3.3s-1.5-3.3-3.3-3.3-3.3 1.5-3.3 3.3 1.5 3.3 3.3 3.3z"/><path d="m147.3 70.4c1.8 0 3.3-1.5 3.3-3.3s-1.5-3.3-3.3-3.3-3.3 1.5-3.3 3.3c-.1 1.8 1.4 3.3 3.3 3.3z"/><path d="m158.9 70.6c1.8 0 3.3-1.5 3.3-3.3s-1.5-3.3-3.3-3.3-3.3 1.5-3.3 3.3 1.5 3.3 3.3 3.3z"/><path d="m169.1 70.2c1.8 0 3.3-1.5 3.3-3.3s-1.5-3.3-3.3-3.3-3.3 1.5-3.3 3.3 1.5 3.3 3.3 3.3z"/><path d="m113.5 97c2 0 3.7-1.6 3.7-3.7 0-2-1.6-3.6-3.7-3.6-2 0-3.6 1.6-3.6 3.6-.1 2.1 1.6 3.7 3.6 3.7z"/><path d="m128 97.2c2 0 3.7-1.6 3.7-3.7 0-2-1.6-3.6-3.7-3.6-2 0-3.6 1.6-3.6 3.6-.1 2.1 1.5 3.7 3.6 3.7z"/><path d="m149.6 97.2c2 0 3.7-1.6 3.7-3.7 0-2-1.6-3.6-3.7-3.6s-3.6 1.6-3.6 3.6c-.1 2.1 1.6 3.7 3.6 3.7z"/><path d="m164.5 97.2c2 0 3.7-1.6 3.7-3.7 0-2-1.6-3.6-3.7-3.6-2 0-3.6 1.6-3.6 3.6 0 2.1 1.6 3.7 3.6 3.7z"/><path d="m177.8 97.2c2 0 3.7-1.6 3.7-3.7 0-2-1.6-3.6-3.7-3.6-2 0-3.6 1.6-3.6 3.6 0 2.1 1.6 3.7 3.6 3.7z"/><path d="m107.9 124.5c2.3 0 4.2-1.9 4.2-4.2s-1.9-4.2-4.2-4.2-4.2 1.9-4.2 4.2c0 2.4 1.9 4.2 4.2 4.2z"/><path d="m125.7 124.5c2.3 0 4.2-1.9 4.2-4.2s-1.9-4.2-4.2-4.2-4.2 1.9-4.2 4.2c0 2.4 1.9 4.2 4.2 4.2z"/><path d="m152.1 124.5c2.3 0 4.2-1.9 4.2-4.2s-1.9-4.2-4.2-4.2-4.2 1.9-4.2 4.2c0 2.4 1.8 4.2 4.2 4.2z"/><path d="m170.6 124.5c2.3 0 4.2-1.9 4.2-4.2s-1.9-4.2-4.2-4.2-4.2 1.9-4.2 4.2c0 2.4 1.9 4.2 4.2 4.2z"/><path d="m186.7 124.5c2.3 0 4.2-1.9 4.2-4.2s-1.9-4.2-4.2-4.2-4.2 1.9-4.2 4.2c0 2.4 1.9 4.2 4.2 4.2z"/><path d="m176.2 151.7c2.7 0 4.8-2.2 4.8-4.8 0-2.7-2.2-4.8-4.8-4.8-2.7 0-4.8 2.2-4.8 4.8-.1 2.6 2.1 4.8 4.8 4.8z"/><path d="m154.3 151.7c2.7 0 4.8-2.2 4.8-4.8 0-2.7-2.2-4.8-4.8-4.8-2.7 0-4.8 2.2-4.8 4.8s2.2 4.8 4.8 4.8z"/><path d="m123.2 151.7c2.7 0 4.8-2.2 4.8-4.8 0-2.7-2.2-4.8-4.8-4.8-2.7 0-4.8 2.2-4.8 4.8s2.1 4.8 4.8 4.8z"/><path d="m101.8 151.7c2.7 0 4.8-2.2 4.8-4.8 0-2.7-2.2-4.8-4.8-4.8-2.7 0-4.8 2.2-4.8 4.8s2.2 4.8 4.8 4.8z"/><path d="m85.4 151.7c2.7 0 4.8-2.2 4.8-4.8 0-2.7-2.2-4.8-4.8-4.8-2.7 0-4.8 2.2-4.8 4.8s2.2 4.8 4.8 4.8z"/><path d="m182 179.4c3.1 0 5.6-2.5 5.6-5.5 0-3.1-2.5-5.5-5.6-5.5s-5.6 2.5-5.6 5.5c.1 3 2.6 5.5 5.6 5.5z"/><path d="m204.1 179.4c3.1 0 5.6-2.5 5.6-5.5 0-3.1-2.5-5.5-5.6-5.5s-5.6 2.5-5.6 5.5c.1 3 2.6 5.5 5.6 5.5z"/></g></svg>

<?xml version="1.0" encoding="utf-8"?>
<!-- Generator: Adobe Illustrator 22.1.0, SVG Export Plug-In . SVG Version: 6.00 Build 0)  -->
<svg version="1.1" id="Showers" xmlns="http://www.w3.org/2000/svg" xmlns:xlink="http://www.w3.org/1999/xlink" x="0px" y="0px"
	 viewBox="0 0 283.1 282.4" style="enable-background:new 0 0 283.1 282.4;" xml:space="preserve">
<style type="text/css">
	.st0{fill:#FFFFFF;}
	.st1{fill:#A7A6A6;}
</style>
<g>
	<g>
		<path class="st0" d="M283.1,18.5c0-10.2-8.3-18.5-18.5-18.5H18.5C8.3,0,0,8.3,0,18.5V264c0,10.2,8.3,18.5,18.5,18.5h246.2
			c10.2,0,18.5-8.3,18.5-18.5V18.5z"/>
		<path class="st1" d="M283.1,18.5c0-10.2-8.3-18.5-18.5-18.5H18.5C8.3,0,0,8.3,0,18.5V264c0,10.2,8.3,18.5,18.5,18.5h246.2
			c10.2,0,18.5-8.3,18.5-18.5V18.5z"/>
	</g>
	<g>
		<g>
			<g>
				<g>
					<polygon class="st0" points="133.7,19.9 145.3,19.9 171.1,45.7 107.9,45.7 					"/>
				</g>
				<g>
					<path class="st0" d="M110.2,70.2c1.8,0,3.3-1.5,3.3-3.3c0-1.8-1.5-3.3-3.3-3.3c-1.8,0-3.3,1.5-3.3,3.3
						C106.9,68.7,108.4,70.2,110.2,70.2z"/>
				</g>
				<g>
					<path class="st0" d="M102.1,97.2c2,0,3.7-1.6,3.7-3.7c0-2-1.6-3.6-3.7-3.6c-2,0-3.6,1.6-3.6,3.6
						C98.4,95.6,100.1,97.2,102.1,97.2z"/>
				</g>
				<g>
					<path class="st0" d="M93.9,124.5c2.3,0,4.2-1.9,4.2-4.2c0-2.3-1.9-4.2-4.2-4.2c-2.3,0-4.2,1.9-4.2,4.2
						C89.7,122.7,91.5,124.5,93.9,124.5z"/>
				</g>
				<g>
					<path class="st0" d="M195.2,151.5c2.7,0,4.8-2.2,4.8-4.8c0-2.7-2.2-4.8-4.8-4.8c-2.7,0-4.8,2.2-4.8,4.8
						C190.3,149.3,192.5,151.5,195.2,151.5z"/>
				</g>
				<g>
					<path class="st0" d="M96.8,178.9c3.1,0,5.6-2.5,5.6-5.6c0-3.1-2.5-5.5-5.6-5.5s-5.6,2.5-5.6,5.5
						C91.2,176.4,93.7,178.9,96.8,178.9z"/>
				</g>
				<g>
					
						<ellipse transform="matrix(0.3827 -0.9239 0.9239 0.3827 -140.1975 186.8983)" class="st0" cx="69.8" cy="198.4" rx="6.4" ry="6.4"/>
				</g>
				<g>
					<path class="st0" d="M62.3,230.1c3.9,0,7-3.1,7-7c0-3.9-3.1-7-7-7c-3.9,0-7,3.1-7,7C55.4,227,58.5,230.1,62.3,230.1z"/>
				</g>
				<g>
					<path class="st0" d="M220.3,230.2c3.9,0,7-3.2,7-7c0-3.9-3.1-7-7-7c-3.9,0-7,3.1-7,7C213.3,227,216.4,230.2,220.3,230.2z"/>
				</g>
				<g>
					<path class="st0" d="M54.6,256.2c4.5,0,8-3.6,8-8c0-4.4-3.6-8-8-8c-4.4,0-8,3.6-8,8C46.5,252.6,50.1,256.2,54.6,256.2z"/>
				</g>
				<g>
					<path class="st0" d="M79.6,256.3c4.4,0,8-3.6,8-8.1c0-4.4-3.6-8-8-8s-8,3.6-8,8C71.6,252.7,75.2,256.3,79.6,256.3z"/>
				</g>
				<g>
					<path class="st0" d="M198.8,256.5c4.4,0,8-3.6,8-8c0-4.5-3.6-8-8-8c-4.5,0-8.1,3.6-8.1,8C190.8,252.9,194.4,256.5,198.8,256.5z
						"/>
				</g>
				<g>
					<path class="st0" d="M228.6,256.1c4.4,0,8-3.6,8-8c0-4.4-3.6-8-8-8c-4.4,0-8,3.6-8,8C220.5,252.5,224.1,256.1,228.6,256.1z"/>
				</g>
				<g>
					<path class="st0" d="M138.5,202.3c12.7,0,23-10.3,23-23s-10.3-23-23-23c-12.7,0-23,10.3-23,23S125.8,202.3,138.5,202.3z"/>
				</g>
				<path class="st0" d="M158.5,189.4l70.2,0.1l-53.8,70.8h-65L56.7,140.5l10.6-4.3c0,0,11.8,32.5,25.1,48.5
					c9.9,12,38.5,35.9,70.5,32.1c29.8-3.5,34.8-12.5,34.8-12.5L155.8,193L158.5,189.4z"/>
				<g>
					<path class="st0" d="M119.2,70.2c1.8,0,3.3-1.5,3.3-3.3c0-1.8-1.5-3.3-3.3-3.3c-1.8,0-3.3,1.5-3.3,3.3
						C115.9,68.7,117.4,70.2,119.2,70.2z"/>
				</g>
				<g>
					<path class="st0" d="M130.4,70.4c1.8,0,3.3-1.5,3.3-3.3c0-1.8-1.5-3.3-3.3-3.3c-1.8,0-3.3,1.5-3.3,3.3
						C127.1,68.9,128.6,70.4,130.4,70.4z"/>
				</g>
				<g>
					<path class="st0" d="M147.3,70.4c1.8,0,3.3-1.5,3.3-3.3c0-1.8-1.5-3.3-3.3-3.3c-1.8,0-3.3,1.5-3.3,3.3
						C143.9,68.9,145.4,70.4,147.3,70.4z"/>
				</g>
				<g>
					<path class="st0" d="M158.9,70.6c1.8,0,3.3-1.5,3.3-3.3c0-1.8-1.5-3.3-3.3-3.3c-1.8,0-3.3,1.5-3.3,3.3
						C155.6,69.1,157.1,70.6,158.9,70.6z"/>
				</g>
				<g>
					<path class="st0" d="M169.1,70.2c1.8,0,3.3-1.5,3.3-3.3c0-1.8-1.5-3.3-3.3-3.3c-1.8,0-3.3,1.5-3.3,3.3
						C165.8,68.7,167.3,70.2,169.1,70.2z"/>
				</g>
				<g>
					<path class="st0" d="M113.5,97c2,0,3.7-1.6,3.7-3.7c0-2-1.6-3.6-3.7-3.6c-2,0-3.6,1.6-3.6,3.6C109.8,95.4,111.5,97,113.5,97z"
						/>
				</g>
				<g>
					<path class="st0" d="M128,97.2c2,0,3.7-1.6,3.7-3.7c0-2-1.6-3.6-3.7-3.6c-2,0-3.6,1.6-3.6,3.6C124.3,95.6,125.9,97.2,128,97.2z
						"/>
				</g>
				<g>
					<path class="st0" d="M149.6,97.2c2,0,3.7-1.6,3.7-3.7c0-2-1.6-3.6-3.7-3.6s-3.6,1.6-3.6,3.6C145.9,95.6,147.6,97.2,149.6,97.2z
						"/>
				</g>
				<g>
					<path class="st0" d="M164.5,97.2c2,0,3.7-1.6,3.7-3.7c0-2-1.6-3.6-3.7-3.6c-2,0-3.6,1.6-3.6,3.6
						C160.9,95.6,162.5,97.2,164.5,97.2z"/>
				</g>
				<g>
					<path class="st0" d="M177.8,97.2c2,0,3.7-1.6,3.7-3.7c0-2-1.6-3.6-3.7-3.6c-2,0-3.6,1.6-3.6,3.6
						C174.2,95.6,175.8,97.2,177.8,97.2z"/>
				</g>
				<g>
					<path class="st0" d="M107.9,124.5c2.3,0,4.2-1.9,4.2-4.2c0-2.3-1.9-4.2-4.2-4.2s-4.2,1.9-4.2,4.2
						C103.7,122.7,105.6,124.5,107.9,124.5z"/>
				</g>
				<g>
					<path class="st0" d="M125.7,124.5c2.3,0,4.2-1.9,4.2-4.2c0-2.3-1.9-4.2-4.2-4.2c-2.3,0-4.2,1.9-4.2,4.2
						C121.5,122.7,123.4,124.5,125.7,124.5z"/>
				</g>
				<g>
					<path class="st0" d="M152.1,124.5c2.3,0,4.2-1.9,4.2-4.2c0-2.3-1.9-4.2-4.2-4.2c-2.3,0-4.2,1.9-4.2,4.2
						C147.9,122.7,149.7,124.5,152.1,124.5z"/>
				</g>
				<g>
					<path class="st0" d="M170.6,124.5c2.3,0,4.2-1.9,4.2-4.2c0-2.3-1.9-4.2-4.2-4.2c-2.3,0-4.2,1.9-4.2,4.2
						C166.4,122.7,168.3,124.5,170.6,124.5z"/>
				</g>
				<g>
					<path class="st0" d="M186.7,124.5c2.3,0,4.2-1.9,4.2-4.2c0-2.3-1.9-4.2-4.2-4.2c-2.3,0-4.2,1.9-4.2,4.2
						C182.5,122.7,184.4,124.5,186.7,124.5z"/>
				</g>
				<g>
					<path class="st0" d="M176.2,151.7c2.7,0,4.8-2.2,4.8-4.8c0-2.7-2.2-4.8-4.8-4.8c-2.7,0-4.8,2.2-4.8,4.8
						C171.3,149.5,173.5,151.7,176.2,151.7z"/>
				</g>
				<g>
					<path class="st0" d="M154.3,151.7c2.7,0,4.8-2.2,4.8-4.8c0-2.7-2.2-4.8-4.8-4.8c-2.7,0-4.8,2.2-4.8,4.8
						C149.5,149.5,151.7,151.7,154.3,151.7z"/>
				</g>
				<g>
					<path class="st0" d="M123.2,151.7c2.7,0,4.8-2.2,4.8-4.8c0-2.7-2.2-4.8-4.8-4.8c-2.7,0-4.8,2.2-4.8,4.8
						C118.4,149.5,120.5,151.7,123.2,151.7z"/>
				</g>
				<g>
					<path class="st0" d="M101.8,151.7c2.7,0,4.8-2.2,4.8-4.8c0-2.7-2.2-4.8-4.8-4.8c-2.7,0-4.8,2.2-4.8,4.8
						C97,149.5,99.2,151.7,101.8,151.7z"/>
				</g>
				<g>
					<path class="st0" d="M85.4,151.7c2.7,0,4.8-2.2,4.8-4.8c0-2.7-2.2-4.8-4.8-4.8c-2.7,0-4.8,2.2-4.8,4.8
						C80.6,149.5,82.8,151.7,85.4,151.7z"/>
				</g>
				<g>
					<path class="st0" d="M182,179.4c3.1,0,5.6-2.5,5.6-5.5c0-3.1-2.5-5.5-5.6-5.5s-5.6,2.5-5.6,5.5
						C176.5,176.9,179,179.4,182,179.4z"/>
				</g>
				<g>
					<path class="st0" d="M204.1,179.4c3.1,0,5.6-2.5,5.6-5.5c0-3.1-2.5-5.5-5.6-5.5s-5.6,2.5-5.6,5.5
						C198.6,176.9,201.1,179.4,204.1,179.4z"/>
				</g>
			</g>
		</g>
	</g>
</g>
</svg>
